packages/core/src/svgs/tokens/mono/SPOOL.svg

<svg width="24" height="24" viewBox="0 0 24 24" fill="none" xmlns="http://www.w3.org/2000/svg">
<path d="M7.28766 14.2222L5.55988 11.0666C5.328 10.6439 5.27202 10.1468 5.40408 9.68297C5.53614 9.2192 5.84561 8.82612 6.26544 8.5889L16.1988 2.96668C16.3266 2.8389 16.521 2.50001 16.3266 2.20557L16.6766 2L18.5543 5.29445C18.7433 5.82224 18.8265 7.04445 17.671 7.70001C16.521 8.35002 10.6765 11.5722 7.89877 13.1C7.70989 13.2055 7.37655 13.5334 7.54321 14.0166C7.48767 14.0722 7.34322 14.1833 7.28766 14.2222ZM7.28766 22L5.55988 18.8444C5.328 18.4217 5.27202 17.9246 5.40408 17.4608C5.53614 16.9969 5.84561 16.6039 6.26544 16.3667L16.1988 10.7445C16.3266 10.6167 16.521 10.2778 16.3266 9.98332L16.6766 9.77773L18.5543 13.0723C18.7433 13.6 18.8265 14.8223 17.671 15.4778C16.521 16.1278 10.6765 19.35 7.89877 20.8778C7.70989 20.9833 7.37655 21.3111 7.54321 21.7944C7.48767 21.85 7.34322 21.9611 7.28766 22Z" fill="white"/>
</svg>

<svg xmlns="http://www.w3.org/2000/svg" width="24" height="24" fill="none" viewBox="0 0 24 24">
    <path fill="#fff" d="M7.288 14.222 5.56 11.067a1.833 1.833 0 0 1 .705-2.478L16.2 2.967c.128-.128.322-.467.128-.761l.35-.206 1.877 3.294c.19.528.273 1.75-.883 2.406-1.15.65-6.994 3.872-9.772 5.4-.19.106-.522.433-.356.917-.055.055-.2.166-.255.205m0 7.778L5.56 18.844a1.833 1.833 0 0 1 .705-2.477l9.934-5.623c.128-.127.322-.466.128-.76l.35-.206 1.877 3.294c.19.528.273 1.75-.883 2.406-1.15.65-6.994 3.872-9.772 5.4-.19.105-.522.433-.356.916a3 3 0 0 1-.255.206"/>
</svg>
